X:3036
T:Tjuv och tjuv
T:Swedish version
C:anon.
O:Sweden?
Z:Transcribed by Frank Nordberg - http://www.musicaviva.com
F:http://abc.musicaviva.com/tunes/sweden/tjuv-och-tjuv.abc
M:2/4
L:1/8
K:G
"G"DGGG|"D"FGAB"G"|GG"D"FD|"D"EF"G"G2:|
w:Tjuv och tjuv det skall du he-ta, f\"or du stal min lil-la v\"an.
w:Men jag har den en-da tr\"os-ten att jag f\aar en ann igen.
"G"B2G2|"Am"ABc2|"D"A2F2|"G"GBd2|
w:Tror jag, tra-la-la, tror jag, tra-la-la,
"G"B2G2|"Am"ABc2|"D"AAFF|"G"G2 z2|]
w:tror jag, tra-la-la, tra-la-la-la-la.
W:
W:Tjuv och tjuv det skall du heta,
W:f\"or du stal min lilla v\"an.
W:Men jag har den enda tr\"osten
W:att jag f\aar en ann igen.
W:  Tror jag, tralala,
W:  tror jag, tralala,
W:  tror jag, tralala,
W:  tralalalala.
W:
W:Jag har f\aatt den stora sorgen
W:att jag mist min lilla v\"an.
W:Men jag har den enda tr\"osten
W:att jag f\aar en ann igen.
W:  Tror jag, tralala,
W:  tror jag, tralala,
W:  tror jag, tralala,
W:  tralalalala.
W:
W:
W:  From Musica Viva - http://www.musicaviva.com
W:  the Internet center for free sheet music downloads.


